packages/katcn/src/icons/svg/ask.svg

<svg width="24" height="25" viewBox="0 0 24 25" fill="none" xmlns="http://www.w3.org/2000/svg">
<path fill-rule="evenodd" clip-rule="evenodd" d="M12 4.31201C7.58172 4.31201 4 7.89373 4 12.312C4 16.7303 7.58172 20.312 12 20.312C16.4183 20.312 20 16.7303 20 12.312C20 7.89373 16.4183 4.31201 12 4.31201ZM2 12.312C2 6.78916 6.47715 2.31201 12 2.31201C17.5228 2.31201 22 6.78916 22 12.312C22 17.8349 17.5228 22.312 12 22.312C6.47715 22.312 2 17.8349 2 12.312ZM12 8.11201C10.8523 8.11201 10 8.9643 10 10.112C10 10.6643 9.55228 11.112 9 11.112C8.44772 11.112 8 10.6643 8 10.112C8 7.85973 9.74771 6.11201 12 6.11201C14.2523 6.11201 16 7.85973 16 10.112C16 12.0175 14.7491 13.5618 13 13.9922V14.012C13 14.5643 12.5523 15.012 12 15.012C11.4477 15.012 11 14.5643 11 14.012V13.112C11 12.5597 11.4477 12.112 12 12.112C13.1477 12.112 14 11.2597 14 10.112C14 8.9643 13.1477 8.11201 12 8.11201ZM12 15.612C12.5523 15.612 13 16.0597 13 16.612V17.512C13 18.0643 12.5523 18.512 12 18.512C11.4477 18.512 11 18.0643 11 17.512V16.612C11 16.0597 11.4477 15.612 12 15.612Z" fill="black"/>
</svg>

<svg xmlns="http://www.w3.org/2000/svg" fill="none" viewBox="0 0 24 25"><path fill="#000" fill-rule="evenodd" d="M12 4.312a8 8 0 1 0 0 16 8 8 0 0 0 0-16m-10 8c0-5.523 4.477-10 10-10s10 4.477 10 10-4.477 10-10 10-10-4.477-10-10m10-4.2c-1.148 0-2 .852-2 2a1 1 0 1 1-2 0c0-2.252 1.748-4 4-4s4 1.748 4 4c0 1.906-1.25 3.45-3 3.88v.02a1 1 0 1 1-2 0v-.9a1 1 0 0 1 1-1c1.148 0 2-.852 2-2s-.852-2-2-2m0 7.5a1 1 0 0 1 1 1v.9a1 1 0 1 1-2 0v-.9a1 1 0 0 1 1-1" clip-rule="evenodd"/></svg>
